bilibili.svg

<svg viewBox="0 0 24 24" xmlns="http://www.w3.org/2000/svg"><path d="M22.2852 16.313C22.178 16.313 22.0816 16.313 21.9958 16.3023C21.8136 16.2916 21.6315 16.2809 21.4493 16.2809C21.3314 16.2809 21.3314 16.2809 21.3207 16.163L21.1491 14.2124L20.9777 12.594L20.8598 11.5973L20.7526 10.7292L20.5597 9.3788C20.4954 8.89657 20.4204 8.42499 20.3239 7.94266C20.3132 7.8677 20.3132 7.85695 20.399 7.84619C20.7312 7.78188 21.0742 7.74972 21.4171 7.74972L21.535 7.74972C21.5885 7.76048 21.6207 7.79263 21.6315 7.85695L21.6744 8.59642L21.9744 12.594L22.1244 14.4267L22.2209 15.4771L22.2852 16.313L22.2852 16.313ZM9.14562 7.74972L9.33855 7.74972C9.43502 7.74972 9.45642 7.78188 9.45642 7.87835L9.54224 9.17522L9.73517 11.8652L9.85304 13.2692L9.93875 14.3517L10.1103 16.2165C10.1103 16.3023 10.0995 16.313 10.0138 16.313L9.24208 16.2809C9.18853 16.2916 9.15637 16.2595 9.15637 16.2058L9.12422 15.8307C9.09206 15.5092 9.05991 15.1877 9.03851 14.8555L8.86697 13.1621L8.68479 11.6295L8.55617 10.547L8.4169 9.56098C8.35259 9.12155 8.27752 8.67148 8.20257 8.23206L8.1489 7.93201C8.13826 7.87835 8.1489 7.85695 8.20257 7.84619C8.50261 7.79263 8.79202 7.73908 9.14562 7.74972L9.14562 7.74972L9.14562 7.74972ZM19.9274 12.0689C20.1953 12.0689 20.2275 12.0797 20.2704 12.3368C20.3239 12.6583 20.3668 12.9799 20.399 13.3014L20.5169 14.341L20.742 16.5487C20.7526 16.6024 20.742 16.6238 20.6883 16.6238L19.8524 16.7203C19.7666 16.7309 19.7451 16.7203 19.7345 16.6346L19.2522 14.1696L18.9521 12.5297L18.9092 12.3046C18.8986 12.2618 18.92 12.2297 18.9629 12.2189C19.2951 12.144 19.6166 12.0903 19.9274 12.0689L19.9274 12.0689L19.9274 12.0689ZM7.74163 12.0689C8.03103 12.0581 8.06319 12.0903 8.09535 12.3583C8.17041 12.7977 8.22397 13.2264 8.26688 13.6658L8.40615 14.9518L8.49186 15.82L8.56693 16.5166C8.56693 16.6131 8.55617 16.6346 8.47046 16.6452L7.67743 16.7203C7.59161 16.7309 7.57021 16.7203 7.55945 16.6346L6.9057 13.2692L6.73427 12.3154C6.72352 12.2618 6.74492 12.2297 6.79858 12.2189C7.13079 12.144 7.44159 12.0903 7.74163 12.0689L7.74163 12.0689L7.74163 12.0689ZM11.8357 15.3912L11.8357 16.7203L11.8357 16.7631C11.8465 16.8274 11.8143 16.8595 11.75 16.8489L11.4928 16.8489C11.3106 16.8489 11.1284 16.8595 10.9462 16.8703C10.8498 16.8811 10.839 16.8811 10.8282 16.7631L10.6568 14.834L10.5711 13.8802L10.4425 12.4226C10.4317 12.3046 10.4532 12.2832 10.5496 12.2725C10.8498 12.2403 11.1498 12.2403 11.45 12.2511L11.6749 12.2832C11.7608 12.3154 11.7714 12.3261 11.7714 12.4119L11.8036 12.9905L11.8143 13.6337C11.8251 14.2231 11.8357 14.8018 11.8357 15.3912L11.8357 15.3912L11.8357 15.3912ZM24 15.4556L24 16.7095L24 16.7738C24 16.8274 23.9786 16.8595 23.9249 16.8489L23.5392 16.8489C23.3892 16.8489 23.239 16.8595 23.0998 16.8703C23.014 16.8811 23.0033 16.8703 22.9925 16.7738L22.7675 14.2659L22.6496 13.0227L22.6068 12.3905C22.596 12.3046 22.6174 12.2832 22.7032 12.2832C23.0568 12.2403 23.4213 12.2297 23.7749 12.2725C23.9143 12.2832 23.9357 12.3261 23.9464 12.4654L23.9786 13.8908L24 15.4556L24 15.4556ZM19.6166 9.78607C19.7237 9.78607 19.8202 9.79682 19.8953 9.80747C19.9488 9.81822 19.9702 9.83962 19.981 9.89329L20.1202 11.383C20.1524 11.5116 20.131 11.533 20.0024 11.533L19.638 11.5544C19.563 11.5652 19.5308 11.5759 19.5308 11.4581L19.3808 10.2469L19.338 9.90393C19.3272 9.83962 19.3486 9.80747 19.4129 9.79682L19.6166 9.78607L19.6166 9.78607ZM7.47374 9.78607C7.55945 9.78607 7.64528 9.79682 7.72023 9.80747C7.76314 9.81822 7.78454 9.83962 7.7953 9.89329L7.8381 10.2684L7.94532 11.4365C7.95608 11.5223 7.95608 11.533 7.87026 11.533L7.45234 11.5544C7.36663 11.5652 7.35587 11.5544 7.34512 11.4687L7.24865 10.6114L7.16294 9.89329C7.15219 9.83962 7.1737 9.80747 7.22725 9.80747C7.30232 9.79682 7.38803 9.78607 7.47374 9.78607L7.47374 9.78607L7.47374 9.78607ZM11.75 10.8578L11.75 11.5973C11.7608 11.7152 11.7393 11.7152 11.6428 11.7152C11.5035 11.7152 11.3749 11.7045 11.2463 11.6938C11.1606 11.683 11.1498 11.683 11.1606 11.5973L11.1284 10.6863C11.1284 10.4827 11.1284 10.279 11.1176 10.0755C11.107 9.979 11.1176 9.96825 11.2141 9.96825C11.3641 9.96825 11.5142 9.979 11.6643 10.0004C11.75 10.0004 11.75 10.0219 11.75 10.1076L11.75 10.8578L11.75 10.8578ZM23.9249 10.8685L23.9249 11.6081C23.9249 11.7045 23.9143 11.7152 23.8178 11.7152L23.4106 11.6938C23.3462 11.683 23.3141 11.6509 23.3248 11.5973L23.2927 10.0647C23.2927 9.979 23.3033 9.96825 23.3892 9.96825C23.5284 9.96825 23.657 9.979 23.7857 9.98976C23.9464 10.0004 23.9249 10.0326 23.9249 10.1504L23.9249 10.8685L23.9249 10.8685ZM7.14154 11.4473C7.15219 11.5759 7.14154 11.5973 7.01292 11.6081L6.75567 11.6724C6.66996 11.7045 6.65921 11.683 6.64856 11.6081L6.38056 10.0969C6.3484 10.0004 6.3698 9.979 6.46627 9.96825L6.84138 9.90393C6.92721 9.89329 6.94861 9.89329 6.94861 9.979C6.98076 10.1612 7.01292 10.3434 7.03432 10.5255L7.14154 11.383L7.14154 11.4473L7.14154 11.4473ZM18.5448 9.979C18.7056 9.94684 18.877 9.92544 19.0486 9.90393C19.1021 9.89329 19.1235 9.92544 19.1343 9.979L19.22 10.5684C19.2629 10.8578 19.2951 11.1471 19.3058 11.4365L19.3058 11.5223C19.3165 11.5652 19.2951 11.5973 19.2522 11.6081L18.9092 11.683C18.8556 11.6938 18.8342 11.6724 18.8235 11.6187L18.5448 10.0219L18.5448 9.979L18.5448 9.979ZM10.9355 11.1365C10.9355 11.3079 10.9247 11.4687 10.9141 11.6187C10.9141 11.6724 10.8926 11.6938 10.839 11.7045L10.5068 11.7367C10.4532 11.7473 10.4317 11.7152 10.4317 11.6616C10.4103 11.5009 10.3996 11.3508 10.3889 11.1901C10.3674 10.9006 10.346 10.6006 10.3353 10.3006L10.3139 10.0862C10.3031 10.0433 10.3246 10.0219 10.3674 10.0219L10.8068 9.98976C10.8819 9.98976 10.9033 10.0004 10.9033 10.0862L10.9355 11.1365L10.9355 11.1365ZM23.089 10.965C23.0998 11.1687 23.0998 11.383 23.089 11.5866C23.0998 11.683 23.0784 11.7045 22.9819 11.7045L22.6817 11.7367C22.6282 11.7473 22.596 11.7152 22.596 11.6616C22.5853 11.3937 22.5639 11.1151 22.5425 10.8471L22.4995 10.0969C22.4888 10.0433 22.5103 10.0219 22.5531 10.0219L22.9819 9.98976C23.0568 9.98976 23.0676 10.0004 23.0676 10.0862C23.089 10.3755 23.0998 10.6757 23.089 10.965L23.089 10.965L23.089 10.965ZM6.72352 14.6196C6.89505 14.8233 6.92721 15.0483 6.85214 15.2948C6.78783 15.5306 6.66996 15.7342 6.49843 15.9057C6.21978 16.1951 5.89833 16.4309 5.54462 16.6131C4.93377 16.9346 4.30142 17.1597 3.62615 17.2776C3.14392 17.374 2.66159 17.4383 2.17936 17.4705C2.02934 17.4811 1.87931 17.4811 1.72918 17.4811L1.40773 17.4811C1.32191 17.4811 1.30051 17.4597 1.28976 17.374L1.2148 16.3344L1.01111 14.2874L0.786132 12.3368L0.657509 11.2973L0.518131 10.3006C0.443175 9.75391 0.346708 9.20737 0.250241 8.66073C0.175174 8.2213 0.100217 7.78188 0.00375033 7.34256C-0.00700481 7.2889 0.00375033 7.2461 0.0573065 7.23534L1.547 6.61374C1.64347 6.57083 1.72918 6.53867 1.82565 6.51727C1.88996 6.50652 1.92212 6.52803 1.91136 6.59234C1.91136 6.76376 1.91136 6.9353 1.90072 7.11747L1.88996 7.25674C1.87931 7.87835 1.87931 8.49995 1.88996 9.13231C1.90072 9.67895 1.93287 10.2362 1.96503 10.7828C2.01858 11.6402 2.10429 12.4976 2.19012 13.3443C2.19012 13.43 2.20076 13.43 2.29723 13.4193C2.47941 13.3872 2.65094 13.3764 2.83312 13.3764C3.40117 13.3764 3.9691 13.4407 4.51575 13.58C4.99798 13.698 5.45891 13.8588 5.91973 14.0623C6.14482 14.1696 6.3484 14.2981 6.54134 14.4482C6.6164 14.5018 6.66996 14.5553 6.72352 14.6196L6.72352 14.6196L6.72352 14.6196ZM18.8021 14.5232C19.0272 14.7053 19.1021 14.9518 19.0378 15.2412C18.9843 15.4771 18.877 15.6807 18.7163 15.8628C18.4591 16.1522 18.159 16.3773 17.8268 16.5595C17.1838 16.9132 16.4979 17.1597 15.769 17.2883C15.3725 17.3633 14.9759 17.4276 14.5794 17.4597C14.3543 17.4811 14.1078 17.4919 13.8613 17.4811L13.5719 17.4811C13.5077 17.4919 13.4755 17.4597 13.4755 17.3954C13.454 17.0954 13.4326 16.7952 13.4005 16.4952L13.2289 14.6625L13.0468 13.0656L12.8218 11.2651C12.7896 10.9543 12.7467 10.6328 12.6932 10.322L12.5002 9.12155C12.4145 8.55362 12.3073 7.98557 12.1894 7.41752L12.1787 7.34256C12.1573 7.2889 12.1787 7.2461 12.2322 7.23534C12.7575 7.02101 13.2719 6.78516 13.797 6.58158C13.9364 6.52803 14.1078 6.46372 14.0972 6.59234C14.0542 6.98885 14.065 7.38537 14.0542 7.77123C14.0435 8.09268 14.0435 8.41424 14.065 8.72504L14.065 8.97153C14.065 9.3574 14.0756 9.74327 14.1078 10.1183C14.1293 10.622 14.1615 11.1365 14.2043 11.6402L14.3007 12.7227C14.3115 12.9262 14.3329 13.1192 14.365 13.3229C14.365 13.4407 14.3864 13.43 14.4829 13.4193C14.6758 13.3872 14.8688 13.3764 15.0617 13.3764C15.7369 13.3872 16.3906 13.4943 17.0336 13.6765C17.4731 13.7944 17.8911 13.9551 18.2984 14.1696C18.4805 14.2659 18.6413 14.3839 18.8021 14.5232L18.8021 14.5232L18.8021 14.5232ZM3.3047 16.4095C3.46548 16.313 3.74412 16.1201 4.12988 15.82C4.51575 15.5092 4.75149 15.3055 4.84795 15.1984C4.26926 14.9412 3.66906 14.7161 3.04745 14.5125L3.3047 16.4095L3.3047 16.4095ZM16.9908 15.252C17.023 15.2198 17.0122 15.1984 16.9801 15.1769L16.7228 15.0698C16.2728 14.8769 15.8226 14.7053 15.3618 14.5553L15.2974 14.5339C15.276 14.5232 15.2546 14.5339 15.2225 14.5447L15.4796 16.3987C15.5118 16.3987 15.5333 16.388 15.5439 16.3773C15.962 16.0772 16.3799 15.7664 16.7979 15.4342L16.9908 15.252L16.9908 15.252Z" fill="#07a3d7"/></svg>

<svg viewBox="0 0 24 24" xmlns="http://www.w3.org/2000/svg"><path d="M22.285 16.313c-.107 0-.203 0-.29-.01-.181-.011-.364-.022-.546-.022-.118 0-.118 0-.128-.118l-.172-1.95-.171-1.619-.118-.997-.107-.868-.193-1.35c-.065-.482-.14-.954-.236-1.436-.01-.075-.01-.086.075-.097a5.373 5.373 0 0 1 1.018-.096h.118c.053.01.086.043.096.107l.043.74.3 3.997.15 1.833.097 1.05.064.836ZM9.145 7.75h.194c.096 0 .117.032.117.128l.086 1.297.193 2.69.118 1.404.086 1.083.171 1.864c0 .086-.01.097-.096.097l-.772-.032c-.053.01-.086-.021-.086-.075l-.032-.375a27.409 27.409 0 0 1-.085-.976l-.172-1.693-.182-1.533-.129-1.082-.14-.986c-.063-.44-.138-.89-.213-1.329l-.054-.3c-.01-.054 0-.075.054-.086.3-.053.589-.107.943-.096Zm10.782 4.319c.268 0 .3.01.343.268.054.321.097.643.129.964l.118 1.04.225 2.208c.01.053 0 .075-.054.075l-.836.096c-.085.01-.107 0-.117-.085l-.483-2.465-.3-1.64-.043-.225c-.01-.043.011-.075.054-.086.332-.075.654-.129.964-.15Zm-12.185 0c.289-.01.321.021.353.29.075.439.129.867.172 1.307l.14 1.286.085.868.075.697c0 .096-.01.118-.097.128l-.793.075c-.085.01-.107 0-.118-.085l-.653-3.366-.172-.954c-.01-.053.01-.085.065-.096.332-.075.643-.129.943-.15Zm4.094 3.322v1.372c.01.064-.022.096-.086.086h-.257c-.182 0-.365.01-.547.021-.096.011-.107.011-.118-.107l-.171-1.929-.086-.954-.128-1.457c-.011-.118.01-.14.107-.15.3-.033.6-.033.9-.022l.225.032c.086.032.096.043.096.129l.033.579.01.643c.011.59.022 1.168.022 1.757ZM24 15.456V16.774c0 .053-.021.085-.075.075h-.386c-.15 0-.3.01-.44.021-.085.011-.096 0-.107-.096l-.225-2.508-.117-1.243-.043-.633c-.011-.085.01-.107.096-.107a4.484 4.484 0 0 1 1.072-.01c.14.01.16.053.171.192l.033 1.426.021 1.565Zm-4.383-5.67c.107 0 .203.01.278.021.054.011.075.033.086.086l.14 1.49c.031.129.01.15-.119.15l-.364.021c-.075.011-.107.022-.107-.096l-.15-1.211-.043-.343c-.01-.064.01-.097.075-.107l.204-.01Zm-12.143 0c.085 0 .171.01.246.021.043.011.065.033.075.086l.043.375.107 1.168c.011.086.011.097-.075.097l-.418.021c-.085.011-.096 0-.107-.085l-.096-.858-.086-.718c-.01-.053.01-.086.064-.086.075-.01.161-.02.247-.02Zm4.276 1.072v.74c.01.117-.01.117-.107.117-.14 0-.268-.01-.397-.021-.085-.011-.096-.011-.085-.097l-.033-.91c0-.204 0-.408-.01-.611-.011-.097 0-.108.096-.108.15 0 .3.011.45.032.086 0 .086.022.086.108v.75Zm12.175.01v.74c0 .096-.01.107-.107.107l-.407-.021c-.065-.011-.097-.043-.086-.097l-.032-1.532c0-.086.01-.097.096-.097.14 0 .268.011.397.022.16.01.139.043.139.16v.718Zm-16.783.58c.01.128 0 .15-.13.16l-.256.064c-.086.032-.097.011-.107-.064l-.268-1.511c-.033-.097-.011-.118.085-.129l.375-.064c.086-.01.108-.01.108.075.032.182.064.364.085.546l.108.858v.064Zm11.403-1.469c.16-.032.332-.054.504-.075.053-.01.075.021.085.075l.086.59c.043.289.075.578.086.867v.086c.01.043-.01.075-.054.086l-.343.075c-.053.01-.075-.01-.085-.064l-.28-1.597v-.043Zm-7.61 1.158c0 .17-.01.332-.02.482 0 .053-.022.075-.076.085l-.332.033c-.054.01-.075-.022-.075-.075a7.013 7.013 0 0 1-.043-.472c-.022-.29-.043-.59-.054-.89l-.021-.214c-.01-.043.01-.064.053-.064l.44-.032c.075 0 .096.01.096.096l.032 1.05Zm12.154-.172c.01.204.01.418 0 .622.01.096-.01.117-.107.117l-.3.033c-.054.01-.086-.022-.086-.075-.01-.268-.032-.547-.053-.815l-.043-.75c-.011-.054.01-.075.053-.075l.429-.032c.075 0 .086.01.086.096.021.29.032.59.021.879ZM6.724 14.62a.676.676 0 0 1 .128.675c-.064.236-.182.44-.354.61-.278.29-.6.526-.953.708a6.477 6.477 0 0 1-1.919.665c-.482.096-.964.16-1.447.193-.15.01-.3.01-.45.01h-.321c-.086 0-.107-.021-.118-.107l-.075-1.04-.204-2.047-.225-1.95-.128-1.04-.14-.996C.443 9.754.347 9.207.25 8.66.175 8.22.1 7.78.004 7.343c-.011-.054 0-.097.053-.108l1.49-.621a1.43 1.43 0 0 1 .279-.097c.064-.01.096.011.085.075 0 .172 0 .343-.01.525l-.011.14c-.01.621-.01 1.243 0 1.875.01.547.043 1.104.075 1.65.054.858.14 1.716.225 2.562 0 .086.01.086.107.075.182-.032.354-.043.536-.043.568 0 1.136.065 1.683.204.482.118.943.279 1.404.482.225.108.428.236.621.386a.93.93 0 0 1 .183.172Zm12.078-.097c.225.182.3.429.236.718-.054.236-.161.44-.322.622-.257.29-.557.514-.89.697a6.64 6.64 0 0 1-2.057.728c-.396.075-.793.14-1.19.172-.225.021-.471.032-.718.021h-.29c-.063.01-.095-.021-.095-.086-.022-.3-.043-.6-.076-.9l-.171-1.833-.182-1.596-.225-1.8c-.032-.312-.075-.633-.129-.944l-.193-1.2a31.599 31.599 0 0 0-.31-1.704l-.011-.075c-.022-.054 0-.097.053-.108.526-.214 1.04-.45 1.565-.653.14-.054.31-.118.3.01-.043.397-.032.793-.043 1.18-.01.32-.01.642.011.953v.247c0 .385.01.771.043 1.146.021.504.053 1.018.096 1.522l.097 1.083c.01.203.032.396.064.6 0 .118.021.107.118.096.193-.032.386-.043.579-.043.675.011 1.329.118 1.972.3.44.118.857.28 1.264.494.183.096.343.214.504.353ZM3.305 16.41c.16-.097.44-.29.825-.59.386-.31.621-.514.718-.622a18.941 18.941 0 0 0-1.8-.686l.257 1.898Zm13.686-1.158c.032-.032.021-.054-.01-.075l-.258-.107c-.45-.193-.9-.365-1.361-.515l-.065-.021c-.021-.01-.042 0-.075.01l.258 1.855c.032 0 .053-.011.064-.022.418-.3.836-.61 1.254-.943l.193-.182Z" fill="#07a3d7"/></svg>
